src/shared/assets/ToastSuccess.svg

<svg width="24" height="24" viewBox="0 0 24 24" fill="none" xmlns="http://www.w3.org/2000/svg">
<rect x="2.40039" y="2.40002" width="19.2" height="19.2" rx="9.6" fill="#4CAF50"/>
<path fill-rule="evenodd" clip-rule="evenodd" d="M16.8093 9.58879C17.1168 9.26206 17.1168 8.73801 16.8093 8.41128C16.494 8.07628 15.9765 8.07628 15.6612 8.41128L10.5882 13.8013L8.33874 11.4113C8.02345 11.0763 7.50588 11.0763 7.19059 11.4113C6.88308 11.738 6.88308 12.2621 7.19059 12.5888L10.0141 15.5888C10.3294 15.9238 10.847 15.9238 11.1623 15.5888L16.8093 9.58879ZM16.2252 8.40013C16.0841 8.40278 15.9437 8.46133 15.8359 8.57577L10.5883 14.1514L10.5884 14.1515L15.8362 8.57577C15.9438 8.46139 16.0841 8.40284 16.2252 8.40013ZM7.75462 11.4001C7.61347 11.4028 7.47307 11.4613 7.36536 11.5758C7.14483 11.8101 7.14483 12.19 7.36536 12.4243L10.1889 15.4243C10.3018 15.5442 10.4505 15.6028 10.5985 15.5999C10.4506 15.6027 10.3019 15.5442 10.1891 15.4243L7.36559 12.4243C7.14506 12.19 7.14506 11.8101 7.36559 11.5758C7.47325 11.4614 7.61355 11.4028 7.75462 11.4001Z" fill="white"/>
</svg>

<svg xmlns="http://www.w3.org/2000/svg" width="24" height="24" fill="none"><rect width="19.2" height="19.2" x="2.4" y="2.4" fill="#4CAF50" rx="9.6"/><path fill="#fff" fill-rule="evenodd" d="M16.81 9.589a.867.867 0 0 0 0-1.178.781.781 0 0 0-1.149 0l-5.073 5.39-2.25-2.39a.781.781 0 0 0-1.147 0 .867.867 0 0 0 0 1.178l2.823 3a.782.782 0 0 0 1.148 0l5.647-6ZM16.224 8.4a.547.547 0 0 0-.39.176l-5.247 5.575 5.248-5.575a.547.547 0 0 1 .39-.176Zm-8.47 3a.547.547 0 0 0-.39.176.627.627 0 0 0 0 .848l2.824 3-2.823-3a.627.627 0 0 1 0-.848.547.547 0 0 1 .389-.176Z" clip-rule="evenodd"/></svg>
